X: 7448
T: Clueless
R: reel
M: 4/4
K: Edorian
|:Beed efge|f2 df edBA|Bdd/d/d dBAB|d2 AB dAB/c/d|
Beed efge|f2 df edBA|Bdd/d/d dBAB|1 defd ~e3 d:|2 defd ~e3 f||
g ~e3 a ~e3|geae g ~e3|fdec dBAB|d2 fd Adfd|
g ~e3 a ~e3|geae g ~e3|fdec dBAB|defd ~e3 f|
geea eege|eaee g ~e3|fdec dBAB|d2 fd Adfd|
geea eege|eaee g ~e3|fdec dBAB|defd ~e3 d||

